X: 151
M: C|
L: 1/8
K: D
V: 1
a/g/ |\
f>ad>a f<da>d | c<eA>e c>e Aa/g/ | f<ad>a f<da>d | B>ABc dDD a/g/ |
y3 |\
f<ad>a f<da>d | c>eA>e c>e Aa/g/ | f>dg>e a>fb>g | f>ae>f dDD |]
V: 2 clef=bass middle=d
z |\
d2f2 g2f2 | e2d2 e2c2 | d2f2 g2f2 | g2a2 d2D :|
z |\
d2d2 d2d2 | a2a2 a2a2 | d2f2 d2f2 | g2a2 d2d2 |
y3 |\
d2d2 d2d2 | a2a2 a2a2 | d2e2 f2g2 | a2A2 d2D |]


